; generated by QIDISlicer 1.2.1 on 2025-11-30 at 18:58:17 UTC


;
;
; 

; external perimeters extrusion width = 0.22mm
; perimeters extrusion width = 0.22mm
; infill extrusion width = 0.22mm
; solid infill extrusion width = 0.22mm
; top infill extrusion width = 0.22mm
; first layer extrusion width = 0.25mm

;TYPE:Custom
EXCLUDE_OBJECT_DEFINE NAME=atmel_flashplate_stl CENTER=88.733,88.150 POLYGON=[[82.309,72.605],[96.309,72.676],[96.895,72.870],[97.172,73.180],[97.299,73.576],[97.252,82.750],[97.931,83.066],[98.241,83.348],[98.485,83.687],[98.738,84.479],[98.654,100.897],[98.565,101.306],[98.146,102.024],[97.471,102.509],[96.656,102.678],[80.656,102.597],[79.844,102.420],[79.174,101.927],[78.930,101.588],[78.677,100.796],[78.760,84.378],[78.849,83.969],[79.268,83.251],[79.581,82.973],[80.263,82.664],[80.354,73.286],[80.564,72.927],[80.902,72.684],[81.309,72.600]]
M73 P0 R18
PRINT_START
G28
M141 S0
G0 Z50 F600
M190 S60
G28 Z
G29; mesh bed leveling, comment this code to close it
G0 X0 Y0 Z50 F6000
M73 P0 R17
M109 S210
M106 P3 S255
M83
G4 P3000
T0



G0 X73.6765 Y67.5996 Z5 F6000
M73 P1 R17
G0 Z0.1 F600
G1 E3 F1800
G1 X158.677 E0.85 F3000
G1 Y69.5996 E0.02
M73 P2 R17
G1 X73.6765 E0.85
G1 Y152.6 E0.83
G1 X75.6765 E0.02
G1 Y70.5996 E0.82
G1 X85.6765 E-0.1
G1 E0.1 F3000
G21 ; set units to millimeters
G90 ; use absolute coordinates
M83 ; use relative distances for extrusion
; Filament gcode
M900 K0.031 T0.03
M107
M106 P2 S0
M106 P3 S255
;LAYER_CHANGE
;Z:0.1
;HEIGHT:0.1
G1 E-.4 F1800
G1 X73.677 Y67.6 Z0 F30000
G1 X78.385 Y73.606 Z.4 F11819.708
G1 X88.11 Y86.012 Z.4 F30000
EXCLUDE_OBJECT_START NAME='atmel_flashplate_stl'
G1 X88.11 Y86.012
G1 Z.1 F600
G1 E.4 F1800
M204 S500
;TYPE:Perimeter
;WIDTH:0.25
G1 F2400
G1 X88.227 Y85.863 E.00176
G1 X88.212 Y85.953 E.00085
G1 X88.136 Y85.997 E.00082
M204 S10000
;WIPE_START
G1 F24000
G1 X88.11 Y86.012 E-.0057
G1 X88.227 Y85.863 E-.03545
G1 X88.212 Y85.953 E-.01546
G1 X88.136 Y85.997 E-.0142
;WIPE_END
G1 E-.32919 F1800
G1 X87.19 Y86.819 Z.166 F11819.789
G1 Z.1 F600
G1 E.4 F1800
M204 S500
G1 F2400
G1 X88.52 Y85.117 E.02011
G1 X88.585 Y84.99 E.00133
G1 X88.609 Y84.99 E.00022
G1 X88.419 Y86.096 E.01045
G1 X87.216 Y86.804 E.013
M204 S10000
;WIPE_START
G1 F24000
G1 X87.19 Y86.819 E-.0057
G1 X88.403 Y85.267 E-.3743
;WIPE_END
G1 E-.02 F1800
G1 X88.729 Y84.291 Z.154 F11819.751
G1 Z.1 F600
G1 E.4 F1800
M204 S500
G1 F2400
G1 X88.787 Y72.991 E.10522
G1 X88.827 Y72.991 E.00037
G1 X88.771 Y84.049 E.10297
G1 X88.734 Y84.262 E.00201
M204 S10000
;WIPE_START
G1 F24000
G1 X88.729 Y84.291 E-.00559
G1 X88.739 Y82.32 E-.37441
;WIPE_END
G1 E-.02 F1800
G1 X88.626 Y86.239 Z.305 F11819.759
G1 Z.1 F600
G1 E.4 F1800
M204 S500
;TYPE:External perimeter
G1 F2400
G1 X86.671 Y87.391 E.02113
G1 X86.596 Y87.402 E.00071
G1 X86.471 Y87.465 E.0013
G1 X86.394 Y87.54 E.001
G1 X86.412 Y87.445 E.0009
G1 X88.327 Y84.993 E.02897
G1 X88.446 Y84.761 E.00243
G1 X88.498 Y84.761 E.00048
G1 X88.559 Y72.761 E.11174
G1 X89.057 Y72.764 E.00464
G1 X88.999 Y84.069 E.10527
G1 X88.632 Y86.209 E.02022
M204 S10000
;WIPE_START
G1 F24000
G1 X88.626 Y86.239 E-.00581
G1 X86.929 Y87.238 E-.37419
;WIPE_END
G1 E-.02 F1800
G1 X86.247 Y88.436 Z.172 F11819.719
G1 Z.1 F600
G1 E.4 F1800
M204 S500
;TYPE:Perimeter
G1 F2400
G1 X86.226 Y88.425 E.00022
G1 X86.33 Y88.374 E.00108
G1 X86.431 Y88.426 E.00106
G1 X86.328 Y88.478 E.00107
G1 X86.273 Y88.45 E.00057
M204 S10000
G1 X86.273 Y88.45 F30000
G1 X86.366 Y88.763
M204 S500
;TYPE:External perimeter
G1 F2400
G1 X86.465 Y88.665 E.0013
G1 X86.59 Y88.602 E.0013
G1 X86.728 Y88.581 E.0013
G1 X86.866 Y88.603 E.0013
G1 X86.99 Y88.667 E.0013
G1 X87.088 Y88.767 E.0013
G1 X87.151 Y88.892 E.0013
G1 X87.172 Y89.03 E.0013
G1 X87.149 Y89.168 E.0013
G1 X87.085 Y89.292 E.0013
G1 X86.986 Y89.39 E.0013
G1 X86.861 Y89.453 E.0013
G1 X86.723 Y89.474 E.0013
G1 X86.585 Y89.451 E.0013
G1 X86.461 Y89.387 E.0013
G1 X86.363 Y89.288 E.0013
G1 X86.325 Y89.212 E.00079
G1 X86.285 Y89.288 E.0008
G1 X86.186 Y89.386 E.0013
G1 X86.061 Y89.449 E.0013
G1 X85.923 Y89.47 E.0013
G1 X85.785 Y89.447 E.0013
G1 X85.661 Y89.383 E.0013
G1 X85.563 Y89.284 E.0013
G1 X85.5 Y89.159 E.0013
G1 X85.479 Y89.021 E.0013
G1 X85.501 Y88.883 E.0013
G1 X85.566 Y88.759 E.0013
G1 X85.665 Y88.661 E.0013
G1 X85.79 Y88.598 E.0013
G1 X85.928 Y88.577 E.0013
G1 X86.066 Y88.599 E.0013
G1 X86.19 Y88.663 E.0013
G1 X86.288 Y88.763 E.0013
G1 X86.326 Y88.839 E.00079
G1 X86.352 Y88.79 E.00052
M204 S10000
;WIPE_START
G1 F24000
G1 X86.366 Y88.763 E-.00578
G1 X86.465 Y88.665 E-.02606
G1 X86.59 Y88.602 E-.02437
G1 X86.728 Y88.581 E-.0226
G1 X86.866 Y88.603 E-.02104
G1 X86.99 Y88.667 E-.01955
G1 X87.088 Y88.767 E-.01824
G1 X87.151 Y88.892 E-.01696
G1 X87.172 Y89.03 E-.01573
G1 X87.149 Y89.168 E-.01467
G1 X87.085 Y89.292 E-.01361
G1 X86.986 Y89.39 E-.01263
G1 X86.861 Y89.453 E-.01181
G1 X86.723 Y89.474 E-.01095
G1 X86.585 Y89.451 E-.01021
G1 X86.573 Y89.445 E-.13578
;WIPE_END
G1 E-.02001 F1800
G1 X85.27 Y89.165 Z.17 F11819.842
G1 Z.1 F600
G1 E.4 F1800
M204 S500
;TYPE:Perimeter
G1 F2400
G1 X85.125 Y89.141 E.00137
G1 X84.915 Y89.173 E.00198
G1 X84.798 Y89.232 E.00122
G1 X85.265 Y87.893 E.0132
G1 X85.286 Y88.03 E.00129
G1 X85.381 Y88.219 E.00197
G1 X85.53 Y88.37 E.00198
G1 X85.631 Y88.422 E.00106
G1 X85.53 Y88.473 E.00105
G1 X85.379 Y88.622 E.00198
G1 X85.282 Y88.811 E.00198
G1 X85.248 Y89.02 E.00197
G1 X85.265 Y89.135 E.00108
M204 S10000
G1 X85.265 Y89.135 F30000
G1 X85.484 Y89.559
M204 S500
;TYPE:External perimeter
G1 F2400
G1 X85.547 Y89.683 E.0013
G1 X85.568 Y89.822 E.00131
G1 X85.545 Y89.959 E.00129
G1 X85.481 Y90.084 E.00131
G1 X85.382 Y90.182 E.0013
G1 X85.257 Y90.245 E.0013
G1 X85.119 Y90.266 E.0013
G1 X84.981 Y90.243 E.0013
G1 X84.857 Y90.179 E.0013
G1 X84.759 Y90.08 E.0013
G1 X84.696 Y89.955 E.0013
G1 X84.675 Y89.817 E.0013
G1 X84.697 Y89.679 E.0013
G1 X84.761 Y89.555 E.0013
G1 X84.861 Y89.457 E.0013
G1 X84.986 Y89.394 E.0013
G1 X85.124 Y89.373 E.0013
G1 X85.262 Y89.395 E.0013
G1 X85.386 Y89.459 E.0013
G1 X85.463 Y89.537 E.00102
M204 S10000
;WIPE_START
G1 F24000
G1 X85.484 Y89.559 E-.00578
G1 X85.547 Y89.683 E-.02602
G1 X85.568 Y89.822 E-.02447
G1 X85.545 Y89.959 E-.02249
G1 X85.481 Y90.084 E-.02115
G1 X85.382 Y90.182 E-.01951
G1 X85.257 Y90.245 E-.01824
G1 X85.119 Y90.266 E-.01691
G1 X84.981 Y90.243 E-.01577
G1 X84.857 Y90.179 E-.01463
G1 X84.759 Y90.08 E-.01358
G1 X84.696 Y89.955 E-.0127
G1 X84.675 Y89.817 E-.01178
G1 X84.697 Y89.679 E-.01097
G1 X84.761 Y89.555 E-.01019
G1 X84.771 Y89.545 E-.13581
;WIPE_END
G1 E-.02 F1800
G1 X84.659 Y93.017 Z.282 F11819.743
G1 Z.1 F600
G1 E.4 F1800
M204 S500
G1 F2400
G1 X84.681 Y92.879 E.0013
G1 X84.745 Y92.755 E.0013
G1 X84.845 Y92.657 E.0013
G1 X84.969 Y92.594 E.0013
G1 X85.107 Y92.573 E.0013
G1 X85.245 Y92.595 E.0013
G1 X85.369 Y92.659 E.0013
G1 X85.468 Y92.759 E.00131
G1 X85.531 Y92.883 E.0013
G1 X85.552 Y93.021 E.0013
G1 X85.529 Y93.159 E.0013
G1 X85.465 Y93.284 E.00131
G1 X85.366 Y93.382 E.0013
G1 X85.241 Y93.445 E.0013
G1 X85.103 Y93.466 E.0013
G1 X84.965 Y93.443 E.0013
G1 X84.841 Y93.379 E.0013
G1 X84.743 Y93.28 E.0013
G1 X84.68 Y93.155 E.0013
G1 X84.663 Y93.047 E.00102
M204 S10000
;WIPE_START
G1 F24000
G1 X84.659 Y93.017 E-.00575
G1 X84.681 Y92.879 E-.02615
G1 X84.745 Y92.755 E-.02429
G1 X84.845 Y92.657 E-.02267
G1 X84.969 Y92.594 E-.02094
G1 X85.107 Y92.573 E-.01956
G1 X85.245 Y92.595 E-.01821
G1 X85.369 Y92.659 E-.01691
G1 X85.468 Y92.759 E-.01587
G1 X85.531 Y92.883 E-.01458
G1 X85.552 Y93.021 E-.01361
G1 X85.529 Y93.159 E-.01269
G1 X85.465 Y93.284 E-.01185
G1 X85.366 Y93.382 E-.01093
G1 X85.241 Y93.445 E-.01022
G1 X85.228 Y93.447 E-.13577
;WIPE_END
G1 E-.02 F1800
G1 X89.087 Y96.686 Z.364 F11819.735
G1 Z.1 F600
G1 E.4 F1800
M204 S500
G1 F2400
G1 X88.949 Y96.663 E.0013
G1 X88.825 Y96.599 E.0013
G1 X88.726 Y96.5 E.0013
G1 X88.663 Y96.375 E.0013
G1 X88.642 Y96.237 E.0013
G1 X88.665 Y96.099 E.0013
G1 X88.729 Y95.975 E.0013
G1 X88.828 Y95.877 E.0013
G1 X88.953 Y95.814 E.0013
G1 X89.091 Y95.793 E.0013
G1 X89.229 Y95.815 E.0013
G1 X89.353 Y95.88 E.0013
G1 X89.451 Y95.979 E.0013
G1 X89.514 Y96.104 E.0013
G1 X89.535 Y96.242 E.0013
G1 X89.513 Y96.38 E.0013
G1 X89.449 Y96.504 E.0013
G1 X89.35 Y96.602 E.0013
G1 X89.225 Y96.665 E.0013
G1 X89.116 Y96.681 E.00103
M204 S10000
;WIPE_START
G1 F24000
G1 X89.087 Y96.686 E-.00559
G1 X88.949 Y96.663 E-.02619
G1 X88.825 Y96.599 E-.0243
G1 X88.726 Y96.5 E-.02268
G1 X88.663 Y96.375 E-.02108
G1 X88.642 Y96.237 E-.01955
G1 X88.665 Y96.099 E-.01823
G1 X88.729 Y95.975 E-.01691
G1 X88.828 Y95.877 E-.0157
G1 X88.953 Y95.814 E-.01468
G1 X89.091 Y95.793 E-.01362
G1 X89.229 Y95.815 E-.01268
G1 X89.353 Y95.88 E-.01182
G1 X89.451 Y95.979 E-.01093
G1 X89.514 Y96.104 E-.01022
G1 X89.516 Y96.118 E-.13582
;WIPE_END
G1 E-.02 F1800
G1 X92.752 Y93.058 Z.333 F11819.731
G1 Z.1 F600
G1 E.4 F1800
M204 S500
G1 F2400
G1 X92.729 Y93.196 E.0013
G1 X92.665 Y93.32 E.0013
G1 X92.566 Y93.418 E.0013
G1 X92.441 Y93.481 E.0013
G1 X92.303 Y93.502 E.0013
G1 X92.165 Y93.48 E.0013
G1 X92.041 Y93.416 E.0013
G1 X91.942 Y93.316 E.00131
G1 X91.88 Y93.192 E.00129
G1 X91.859 Y93.053 E.00131
G1 X91.881 Y92.916 E.00129
G1 X91.945 Y92.791 E.00131
G1 X92.044 Y92.693 E.0013
G1 X92.169 Y92.63 E.0013
G1 X92.307 Y92.609 E.0013
G1 X92.445 Y92.632 E.0013
G1 X92.569 Y92.696 E.0013
G1 X92.668 Y92.795 E.0013
G1 X92.73 Y92.92 E.0013
G1 X92.747 Y93.028 E.00102
M204 S10000
;WIPE_START
G1 F24000
G1 X92.752 Y93.058 E-.00578
G1 X92.729 Y93.196 E-.02618
G1 X92.665 Y93.32 E-.02428
G1 X92.566 Y93.418 E-.02255
G1 X92.441 Y93.481 E-.02108
G1 X92.303 Y93.502 E-.01955
G1 X92.165 Y93.48 E-.01821
G1 X92.041 Y93.416 E-.01691
G1 X91.942 Y93.316 E-.01586
G1 X91.88 Y93.192 E-.01453
G1 X91.859 Y93.053 E-.01371
G1 X91.881 Y92.916 E-.01258
G1 X91.945 Y92.791 E-.01185
G1 X92.044 Y92.693 E-.01093
G1 X92.169 Y92.63 E-.01022
G1 X92.182 Y92.628 E-.13578
;WIPE_END
G1 E-.02 F1800
G1 X87.81 Y86.372 Z.5 F11819.708
G1 X86.337 Y84.264 F30000
G1 Z.1 F600
G1 E.4 F1800
M204 S500
;TYPE:Perimeter
G1 F2400
G1 X86.387 Y72.979 E.10508
G1 X86.427 Y72.979 E.00037
M73 P3 R17
G1 X86.37 Y84.182 E.10432
G1 X86.348 Y84.237 E.00055
M204 S10000
;WIPE_START
G1 F24000
G1 X86.337 Y84.264 E-.00554
G1 X86.346 Y82.293 E-.37446
;WIPE_END
G1 E-.02 F1800
G1 X83.974 Y83.457 Z.238 F11819.709
G1 Z.1 F600
G1 E.4 F1800
M204 S500
G1 F2400
G1 X83.968 Y84.542 E.0101
G1 X83.926 Y84.865 E.00303
G1 X83.987 Y72.967 E.11079
G1 X84.027 Y72.967 E.00037
G1 X83.974 Y83.427 E.0974
M204 S10000
;WIPE_START
G1 F24000
G1 X83.974 Y83.457 E-.0057
G1 X83.968 Y84.542 E-.20306
G1 X83.926 Y84.865 E-.02789
G1 X83.929 Y84.306 E-.14335
;WIPE_END
G1 E-.02 F1800
G1 X88.222 Y90.617 Z.5 F11819.708
G1 X91.323 Y95.176 F30000
G1 Z.1 F600
G1 E.4 F1800
M204 S500
G1 F2400
G1 X91.322 Y95.279 E.00096
G1 X86.065 Y95.253 E.04895
G1 X86.09 Y90.469 E.04455
G1 X86.092 Y89.996 E.0044
G1 X91.349 Y90.022 E.04895
G1 X91.323 Y95.146 E.04771
M204 S10000
G1 X91.323 Y95.146 F30000
G1 X91.095 Y95.013
M204 S500
;TYPE:External perimeter
G1 F2400
G1 X91.095 Y95.05 E.00034
G1 X86.295 Y95.025 E.0447
G1 X86.318 Y90.47 E.04241
G1 X86.319 Y90.225 E.00228
G1 X91.119 Y90.25 E.0447
G1 X91.095 Y94.983 E.04407
M204 S10000
;WIPE_START
G1 F24000
G1 X91.095 Y95.013 E-.0057
G1 X91.095 Y95.05 E-.00692
G1 X89.162 Y95.04 E-.36738
;WIPE_END
G1 E-.02 F1800
G1 X85.631 Y90.824 Z.388 F11819.713
G1 Z.1 F600
G1 E.4 F1800
M204 S500
;TYPE:Perimeter
G1 F2400
G1 X85.625 Y92.019 E.01113
G1 X85.463 Y91.936 E.00169
G1 X85.111 Y91.878 E.00332
G1 X84.758 Y91.933 E.00333
G1 X84.573 Y92.026 E.00193
G1 X83.887 Y90.949 E.01189
G1 X84.268 Y90.9 E.00358
G1 X84.517 Y90.775 E.00259
G1 X84.763 Y90.902 E.00258
G1 X85.116 Y90.96 E.00333
G1 X85.468 Y90.906 E.00332
G1 X85.604 Y90.838 E.00142
M204 S10000
G1 X85.604 Y90.838 F30000
G1 X85.862 Y90.343
M204 S500
G1 F2400
G1 X85.861 Y90.468 E.00116
G1 X85.851 Y92.503 E.01895
G1 X85.643 Y92.286 E.0028
G1 X85.391 Y92.156 E.00264
G1 X85.11 Y92.11 E.00265
G1 X84.829 Y92.153 E.00265
G1 X84.574 Y92.281 E.00266
G1 X84.507 Y92.348 E.00088
G1 X83.316 Y90.478 E.02064
G1 X83.383 Y90.546 E.00089
G1 X83.636 Y90.677 E.00265
G1 X83.917 Y90.722 E.00265
G1 X84.198 Y90.679 E.00265
G1 X84.452 Y90.552 E.00264
G1 X84.518 Y90.486 E.00087
G1 X84.583 Y90.552 E.00086
G1 X84.836 Y90.683 E.00265
G1 X85.117 Y90.729 E.00265
G1 X85.398 Y90.685 E.00265
G1 X85.652 Y90.558 E.00264
G1 X85.841 Y90.365 E.00252
M204 S10000
;WIPE_START
G1 F24000
G1 X85.862 Y90.343 E-.00578
G1 X85.861 Y90.468 E-.02339
G1 X85.852 Y92.313 E-.35083
;WIPE_END
G1 E-.02 F1800
G1 X83.316 Y87.778 Z.372 F11819.748
G1 Z.1 F600
G1 E.4 F1800
M204 S500
G1 F2400
G1 X83.141 Y89.12 E.0126
G1 X83.152 Y86.877 E.02089
G1 X83.567 Y85.857 E.01025
G1 X83.32 Y87.749 E.01777
M204 S10000
;WIPE_START
G1 F24000
G1 X83.316 Y87.778 E-.00556
G1 X83.141 Y89.12 E-.25337
G1 X83.144 Y88.503 E-.12106
;WIPE_END
G1 E-.02001 F1800
G1 X87.824 Y88.759 Z.346 F11819.745
G1 Z.1 F600
G1 E.4 F1800
M204 S500
G1 F2400
G1 X89.992 Y88.417 E.02044
G1 X90.452 Y88.185 E.0048
G1 X90.82 Y87.821 E.00482
G1 X91.056 Y87.364 E.00479
G1 X91.139 Y86.884 E.00454
G1 X91.682 Y89.567 E.02549
G1 X87.725 Y89.547 E.03685
G1 X87.809 Y89.385 E.0017
G1 X87.866 Y89.033 E.00332
G1 X87.829 Y88.789 E.0023
M204 S10000
;WIPE_START
G1 F24000
G1 X87.824 Y88.759 E-.00578
G1 X89.769 Y88.452 E-.37422
;WIPE_END
G1 E-.02 F1800
G1 X92.162 Y91.938 Z.322 F11819.746
G1 Z.1 F600
G1 E.4 F1800
M204 S500
G1 F2400
G1 X91.958 Y91.969 E.00192
G1 X91.796 Y92.051 E.00169
G1 X91.805 Y90.175 E.01747
G1 X92.156 Y91.908 E.01646
M204 S10000
G1 X92.156 Y91.908 F30000
G1 X91.565 Y92.532
M204 S500
G1 F2400
G1 X91.579 Y89.795 E.02549
G1 X87.242 Y89.773 E.04038
G1 X87.458 Y89.566 E.00279
G1 X87.589 Y89.313 E.00265
G1 X87.635 Y89.032 E.00265
G1 X87.592 Y88.751 E.00265
G1 X87.505 Y88.578 E.0018
G1 X89.921 Y88.197 E.02277
G1 X90.317 Y87.997 E.00413
G1 X90.634 Y87.684 E.00415
G1 X90.837 Y87.29 E.00413
G1 X91.12 Y85.641 E.01558
G1 X92.442 Y92.168 E.06201
G1 X92.31 Y92.146 E.00125
G1 X92.028 Y92.19 E.00266
G1 X91.774 Y92.317 E.00264
G1 X91.586 Y92.51 E.00251
M204 S10000
;WIPE_START
G1 F24000
G1 X91.565 Y92.532 E-.00578
G1 X91.575 Y90.562 E-.37422
;WIPE_END
G1 E-.02 F1800
G1 X94.62 Y93.225 Z.312 F11819.755
G1 Z.1 F600
G1 E.4 F1800
M204 S500
G1 F2400
G1 X94.646 Y93.068 E.00148
G1 X94.574 Y92.679 E.00368
G1 X94.103 Y86.201 E.06048
G1 X95.09 Y87.298 E.01374
G1 X95.054 Y94.292 E.06513
G1 X91.779 Y95.386 E.03215
G1 X91.786 Y94.056 E.01238
G1 X91.947 Y94.139 E.00169
G1 X92.299 Y94.196 E.00332
G1 X92.652 Y94.142 E.00333
G1 X92.9 Y94.018 E.00258
G1 X93.147 Y94.145 E.00259
G1 X93.499 Y94.203 E.00332
G1 X93.852 Y94.149 E.00333
G1 X94.171 Y93.988 E.00333
G1 X94.424 Y93.737 E.00332
G1 X94.588 Y93.42 E.00332
G1 X94.615 Y93.255 E.00156
M204 S10000
;WIPE_START
G1 F24000
G1 X94.62 Y93.225 E-.00578
G1 X94.646 Y93.068 E-.02978
G1 X94.574 Y92.679 E-.06813
G1 X94.471 Y91.268 E-.27631
;WIPE_END
G1 E-.02 F1800
G1 X90.18 Y95.92 Z.432 F11819.732
G1 Z.1 F600
G1 E.4 F1800
M204 S500
G1 F2400
G1 X90.094 Y95.73 E.00194
G1 X90.737 Y95.733 E.00599
G1 X90.208 Y95.91 E.00519
M204 S10000
;WIPE_START
G1 F24000
G1 X90.18 Y95.92 E-.00565
G1 X90.094 Y95.73 E-.03904
G1 X90.737 Y95.733 E-.1078
G1 X90.208 Y95.91 E-.06346
;WIPE_END
G1 E-.18405 F1800
G1 X91.551 Y95.339 Z.176 F11819.726
G1 Z.1 F600
G1 E.4 F1800
M204 S500
G1 F2400
G1 X91.56 Y93.572 E.01645
G1 X91.767 Y93.789 E.00279
G1 X92.02 Y93.919 E.00265
G1 X92.3 Y93.965 E.00264
G1 X92.582 Y93.922 E.00266
G1 X92.836 Y93.794 E.00265
G1 X92.902 Y93.729 E.00086
G1 X92.967 Y93.795 E.00086
G1 X93.22 Y93.925 E.00265
G1 X93.5 Y93.971 E.00264
G1 X93.782 Y93.928 E.00266
G1 X94.036 Y93.8 E.00265
G1 X94.238 Y93.6 E.00265
G1 X94.368 Y93.347 E.00265
G1 X94.414 Y93.066 E.00265
G1 X94.371 Y92.786 E.00264
G1 X94.349 Y92.741 E.00047
G1 X93.826 Y85.553 E.06711
G1 X95.319 Y87.211 E.02078
G1 X95.282 Y94.456 E.06746
G1 X89.995 Y96.222 E.0519
G1 X89.955 Y95.963 E.00244
G1 X89.827 Y95.709 E.00265
G1 X89.613 Y95.499 E.00279
G1 X91.55 Y95.509 E.01804
G1 X91.55 Y95.369 E.0013
M204 S10000
;WIPE_START
G1 F24000
G1 X91.551 Y95.339 E-.0057
G1 X91.56 Y93.572 E-.3307
G1 X91.7 Y93.719 E-.0436
;WIPE_END
G1 E-.02 F1800
G1 X94.504 Y86.62 Z.5 F11819.707
