; generated by QIDISlicer 1.2.1 on 2025-11-30 at 19:31:35 UTC


;
;
; 

; external perimeters extrusion width = 0.22mm
; perimeters extrusion width = 0.22mm
; infill extrusion width = 0.22mm
; solid infill extrusion width = 0.22mm
; top infill extrusion width = 0.22mm
; first layer extrusion width = 0.25mm

;TYPE:Custom
EXCLUDE_OBJECT_DEFINE NAME=ATMegaFlashAdapter_v14_stl CENTER=87.130,89.475 POLYGON=[[81.387,83.817],[92.787,83.817],[92.787,95.217],[82.835,95.217],[81.387,93.770]]
M73 P0 R12
PRINT_START
G28
M141 S0
G0 Z50 F600
M190 S60
G28 Z
G29; mesh bed leveling, comment this code to close it
G0 X0 Y0 Z50 F6000
M73 P1 R12
M109 S210
M106 P3 S255
M83
G4 P3000
T0



G0 X76.3874 Y78.8175 Z5 F6000
G0 Z0.1 F600
M73 P2 R12
G1 E3 F1800
G1 X161.387 E0.85 F3000
G1 Y80.8175 E0.02
G1 X76.3874 E0.85
G1 Y163.817 E0.83
M73 P3 R12
G1 X78.3874 E0.02
G1 Y81.8175 E0.82
G1 X88.3874 E-0.1
G1 E0.1 F3000
G21 ; set units to millimeters
G90 ; use absolute coordinates
M83 ; use relative distances for extrusion
; Filament gcode
M900 K0.031 T0.03
M107
M106 P2 S0
M106 P3 S255
;LAYER_CHANGE
;Z:0.1
;HEIGHT:0.1
G1 E-.4 F1800
G1 X76.387 Y78.817 Z0 F30000
G1 X81.703 Y84.294 Z.4 F11819.707
G1 X82.005 Y84.606 Z.4 F30000
EXCLUDE_OBJECT_START NAME='ATMegaFlashAdapter_v14_stl'
G1 X82.005 Y84.606
G1 Z.1 F600
G1 E.4 F1800
M204 S500
;TYPE:Perimeter
;WIDTH:0.25
G1 F2400
G1 X82.005 Y84.435 E.00159
G1 X92.169 Y84.435 E.09464
G1 X92.169 Y94.6 E.09465
G1 X83.091 Y94.6 E.08453
G1 X82.005 Y93.514 E.0143
G1 X82.005 Y84.636 E.08267
M204 S10000
G1 X82.005 Y84.636 F30000
G1 X82.234 Y84.767
M204 S500
G1 F2400
G1 X82.234 Y84.664 E.00096
G1 X91.941 Y84.664 E.09039
G1 X91.941 Y94.371 E.09039
G1 X83.186 Y94.371 E.08152
G1 X82.234 Y93.419 E.01254
G1 X82.234 Y84.797 E.08028
M204 S10000
G1 X82.234 Y84.797 F30000
G1 X82.462 Y84.929
M204 S500
;TYPE:External perimeter
G1 F2400
G1 X82.462 Y84.892 E.00034
G1 X91.712 Y84.892 E.08613
G1 X91.712 Y94.142 E.08613
G1 X83.28 Y94.142 E.07851
G1 X82.462 Y93.324 E.01077
G1 X82.462 Y84.959 E.07789
M204 S10000
;WIPE_START
G1 F24000
M73 P4 R12
G1 X82.462 Y84.929 E-.0057
G1 X82.462 Y84.892 E-.00692
G1 X84.395 Y84.892 E-.36738
;WIPE_END
G1 E-.02 F1800
G1 X92.012 Y84.412 Z.5 F11819.708
G1 X92.205 Y84.4 F30000
G1 Z.1 F600
G1 E.4 F1800
M204 S500
;TYPE:Perimeter
G1 F2400
G1 X92.205 Y94.635 E.0953
G1 X83.076 Y94.635 E.08501
G1 X81.969 Y93.529 E.01457
G1 X81.969 Y84.4 E.08501
G1 X92.175 Y84.4 E.09503
M204 S10000
G1 X92.175 Y84.4 F30000
G1 X92.434 Y84.171
M204 S500
G1 F2400
G1 X92.434 Y94.864 E.09957
G1 X82.982 Y94.864 E.08801
G1 X81.741 Y93.623 E.01634
G1 X81.741 Y84.171 E.08801
G1 X92.404 Y84.171 E.09929
M204 S10000
G1 X92.404 Y84.171 F30000
G1 X92.662 Y83.942
M204 S500
;TYPE:External perimeter
G1 F2400
G1 X92.662 Y95.092 E.10382
G1 X82.887 Y95.092 E.09102
G1 X81.512 Y93.718 E.0181
G1 X81.512 Y83.942 E.09103
G1 X92.632 Y83.942 E.10354
M204 S10000
;WIPE_START
G1 F24000
G1 X92.662 Y83.942 E-.0057
G1 X92.662 Y85.912 E-.3743
;WIPE_END
G1 E-.02 F1800
G1 X89.677 Y86.928 Z.265 F11819.737
G1 Z.1 F600
G1 E.4 F1800
M204 S500
;TYPE:Perimeter
G1 F2400
G1 X89.677 Y87.828 E.00838
G1 X90.577 Y87.828 E.00838
G1 X90.577 Y88.807 E.00912
G1 X89.677 Y88.807 E.00838
G1 X89.677 Y91.028 E.02068
G1 X90.577 Y91.028 E.00838
G1 X90.577 Y93.007 E.01843
G1 X87.798 Y93.007 E.02588
G1 X87.798 Y92.107 E.00838
G1 X85.577 Y92.107 E.02068
G1 X85.577 Y93.007 E.00838
G1 X83.892 Y93.007 E.01569
G1 X83.598 Y92.713 E.00387
G1 X83.598 Y91.028 E.01569
G1 X84.498 Y91.028 E.00838
G1 X84.498 Y88.807 E.02068
G1 X83.598 Y88.807 E.00838
G1 X83.598 Y86.028 E.02588
G1 X87.977 Y86.028 E.04078
G1 X87.977 Y86.928 E.00838
G1 X89.647 Y86.928 E.01555
M204 S10000
G1 X89.647 Y86.928 F30000
G1 X89.799 Y86.7
M204 S500
G1 F2400
G1 X89.905 Y86.7 E.00099
G1 X89.905 Y87.6 E.00838
G1 X90.805 Y87.6 E.00838
G1 X90.805 Y89.035 E.01336
G1 X89.905 Y89.035 E.00838
G1 X89.905 Y90.8 E.01643
G1 X90.805 Y90.8 E.00838
G1 X90.805 Y93.235 E.02267
G1 X87.569 Y93.235 E.03013
G1 X87.569 Y92.335 E.00838
G1 X85.805 Y92.335 E.01643
G1 X85.805 Y93.235 E.00838
G1 X83.797 Y93.235 E.0187
G1 X83.369 Y92.808 E.00563
G1 X83.369 Y90.8 E.0187
G1 X84.269 Y90.8 E.00838
G1 X84.269 Y89.035 E.01643
G1 X83.369 Y89.035 E.00838
G1 X83.369 Y85.8 E.03012
G1 X88.205 Y85.8 E.04503
G1 X88.205 Y86.7 E.00838
G1 X89.769 Y86.7 E.01456
M204 S10000
G1 X89.769 Y86.7 F30000
G1 X89.637 Y86.471
M204 S500
G1 F2400
G1 X90.134 Y86.471 E.00463
G1 X90.134 Y87.371 E.00838
G1 X91.034 Y87.371 E.00838
G1 X91.034 Y89.264 E.01763
G1 X90.134 Y89.264 E.00838
M73 P5 R12
G1 X90.134 Y90.571 E.01217
G1 X91.034 Y90.571 E.00838
G1 X91.034 Y93.464 E.02694
G1 X87.341 Y93.464 E.03439
G1 X87.341 Y92.564 E.00838
G1 X86.034 Y92.564 E.01217
G1 X86.034 Y93.464 E.00838
G1 X83.702 Y93.464 E.02171
G1 X83.141 Y92.902 E.00739
G1 X83.141 Y90.571 E.02171
G1 X84.041 Y90.571 E.00838
G1 X84.041 Y89.264 E.01217
G1 X83.141 Y89.264 E.00838
G1 X83.141 Y85.571 E.03439
G1 X88.434 Y85.571 E.04929
G1 X88.434 Y86.471 E.00838
G1 X89.607 Y86.471 E.01092
M204 S10000
;WIPE_START
G1 F24000
G1 X89.637 Y86.471 E-.0057
G1 X90.134 Y86.471 E-.09301
G1 X90.134 Y87.371 E-.12658
G1 X90.707 Y87.371 E-.15471
;WIPE_END
G1 E-.02 F1800
G1 X90.769 Y85.835 Z.181 F11819.787
G1 Z.1 F600
G1 E.4 F1800
M204 S500
G1 F2400
G1 X90.769 Y85.8 E.00033
G1 X90.805 Y85.8 E.00034
G1 X90.805 Y85.835 E.00033
G1 X90.799 Y85.835 E.00006
M204 S10000
G1 X90.799 Y85.835 F30000
G1 X90.541 Y86.064
M204 S500
G1 F2400
G1 X90.541 Y85.571 E.00459
G1 X91.034 Y85.571 E.00459
G1 X91.034 Y86.064 E.00459
G1 X90.571 Y86.064 E.00431
M204 S10000
;WIPE_START
G1 F24000
G1 X90.541 Y86.064 E-.0057
G1 X90.541 Y85.571 E-.09226
G1 X91.034 Y85.571 E-.06952
G1 X91.034 Y86.064 E-.05238
G1 X90.571 Y86.064 E-.03707
;WIPE_END
G1 E-.14307 F1800
G1 X89.476 Y86.242 Z.158 F11819.761
G1 Z.1 F600
G1 E.4 F1800
M204 S500
;TYPE:External perimeter
G1 F2400
G1 X90.312 Y86.242 E.00778
G1 X90.312 Y85.342 E.00838
G1 X91.262 Y85.342 E.00885
G1 X91.262 Y86.292 E.00885
G1 X90.362 Y86.292 E.00838
G1 X90.362 Y87.142 E.00791
G1 X91.262 Y87.142 E.00838
G1 X91.262 Y89.492 E.02188
G1 X90.362 Y89.492 E.00838
G1 X90.362 Y90.342 E.00791
G1 X91.262 Y90.342 E.00838
G1 X91.262 Y93.692 E.03119
G1 X87.112 Y93.692 E.03864
G1 X87.112 Y92.792 E.00838
G1 X86.262 Y92.792 E.00791
G1 X86.262 Y93.692 E.00838
G1 X83.608 Y93.692 E.02471
G1 X82.912 Y92.997 E.00916
G1 X82.912 Y90.342 E.02472
G1 X83.812 Y90.342 E.00838
G1 X83.812 Y89.492 E.00791
G1 X82.912 Y89.492 E.00838
G1 X82.912 Y85.342 E.03864
G1 X88.662 Y85.342 E.05354
G1 X88.662 Y86.242 E.00838
G1 X89.446 Y86.242 E.0073
M204 S10000
G1 X89.446 Y86.242 F30000
G1 X89.14 Y87.002
M204 S500
;TYPE:Solid infill
;WIDTH:0.250271
G1 F4200
G1 X89.603 Y87.465 E.0061
M204 S10000
G1 X89.603 Y87.465 F30000
G1 X90.04 Y87.902
M204 S500
G1 F4200
G1 X90.4 Y88.262 E.00475
G1 X90.4 Y88.586 E.00302
G1 X89.819 Y88.005 E.00766
G1 X89.5 Y88.005 E.00297
G1 X89.5 Y87.686 E.00297
G1 X88.919 Y87.105 E.00766
G1 X88.596 Y87.105 E.00301
G1 X90.12 Y88.63 E.0201
G1 X89.797 Y88.63 E.00301
G1 X88.169 Y87.002 E.02146
M204 S10000
G1 X88.169 Y87.002 F30000
G1 X87.903 Y86.412
M204 S500
G1 F4200
G1 X87.696 Y86.205 E.00273
G1 X87.372 Y86.205 E.00302
G1 X87.903 Y86.736 E.007
M204 S10000
;WIPE_START
G1 F24000
G1 X87.372 Y86.205 E-.14268
G1 X87.696 Y86.205 E-.03845
G1 X87.903 Y86.412 E-.02911
;WIPE_END
G1 E-.18976 F1800
G1 X86.946 Y86.102 Z.153 F11819.88
G1 Z.1 F600
G1 E.4 F1800
M204 S500
G1 F4200
G1 X89.5 Y88.656 E.03367
G1 X89.5 Y88.98 E.00302
G1 X86.725 Y86.205 E.03659
G1 X86.401 Y86.205 E.00302
G1 X89.5 Y89.304 E.04086
G1 X89.5 Y89.627 E.00301
G1 X86.078 Y86.205 E.04512
G1 X85.754 Y86.205 E.00302
G1 X89.5 Y89.951 E.04939
G1 X89.5 Y90.274 E.00301
G1 X85.43 Y86.205 E.05365
G1 X85.107 Y86.205 E.00301
G1 X89.603 Y90.701 E.05928
M204 S10000
G1 X89.603 Y90.701 F30000
G1 X90.004 Y91.102
M204 S500
G1 F4200
G1 X90.4 Y91.498 E.00522
G1 X90.4 Y91.822 E.00302
G1 X89.783 Y91.205 E.00813
G1 X89.5 Y91.205 E.00264
G1 X89.5 Y90.922 E.00264
G1 X84.783 Y86.205 E.06219
G1 X84.46 Y86.205 E.00301
G1 X90.4 Y92.145 E.07831
G1 X90.4 Y92.469 E.00302
G1 X84.136 Y86.205 E.08259
G1 X83.813 Y86.205 E.00301
G1 X90.4 Y92.792 E.08684
G1 X90.4 Y92.83 E.00035
G1 X90.113 Y92.83 E.00268
G1 X83.775 Y86.491 E.08357
G1 X83.775 Y86.815 E.00302
G1 X89.79 Y92.83 E.0793
G1 X89.466 Y92.83 E.00302
G1 X83.775 Y87.139 E.07503
G1 X83.775 Y87.462 E.00301
M73 P6 R12
G1 X89.143 Y92.83 E.07077
G1 X88.819 Y92.83 E.00302
G1 X83.775 Y87.786 E.0665
G1 X83.775 Y88.109 E.00301
G1 X84.296 Y88.63 E.00687
G1 X83.972 Y88.63 E.00302
G1 X83.672 Y88.33 E.00396
M204 S10000
;WIPE_START
G1 F24000
G1 X83.972 Y88.63 E-.08061
G1 X84.296 Y88.63 E-.0485
G1 X83.775 Y88.109 E-.09243
G1 X83.775 Y87.786 E-.02559
G1 X83.911 Y87.922 E-.13287
;WIPE_END
G1 E-.02 F1800
G1 X84.572 Y88.906 Z.162 F11819.783
G1 Z.1 F600
G1 E.4 F1800
M204 S500
G1 F4200
G1 X87.596 Y91.93 E.03987
G1 X87.272 Y91.93 E.00302
G1 X84.675 Y89.333 E.03424
G1 X84.675 Y89.657 E.00302
G1 X86.948 Y91.93 E.02997
G1 X86.625 Y91.93 E.00301
G1 X84.675 Y89.98 E.02571
G1 X84.675 Y90.304 E.00302
G1 X86.301 Y91.93 E.02144
G1 X85.978 Y91.93 E.00301
G1 X84.675 Y90.627 E.01718
G1 X84.675 Y90.951 E.00302
G1 X85.654 Y91.93 E.01291
G1 X85.4 Y91.93 E.00237
G1 X85.4 Y91.999 E.00064
G1 X84.606 Y91.205 E.01047
G1 X84.282 Y91.205 E.00302
G1 X85.4 Y92.323 E.01474
G1 X85.4 Y92.646 E.00301
G1 X83.959 Y91.205 E.019
G1 X83.775 Y91.205 E.00172
G1 X83.775 Y91.345 E.00131
G1 X85.26 Y92.83 E.01958
G1 X84.936 Y92.83 E.00302
G1 X83.775 Y91.669 E.01531
G1 X83.775 Y91.992 E.00301
G1 X84.612 Y92.83 E.01104
G1 X84.289 Y92.83 E.00301
G1 X83.775 Y92.316 E.00678
G1 X83.775 Y92.64 E.00302
G1 X84.068 Y92.933 E.00386
M204 S10000
;WIPE_START
G1 F24000
G1 X83.775 Y92.64 E-.07873
G1 X83.775 Y92.316 E-.04881
G1 X84.289 Y92.83 E-.09176
G1 X84.612 Y92.83 E-.02595
G1 X84.462 Y92.68 E-.13475
;WIPE_END
G1 E-.02 F1800
G1 X87.872 Y92.206 Z.28 F11819.758
G1 Z.1 F600
G1 E.4 F1800
M204 S500
G1 F4200
G1 X88.496 Y92.83 E.00823
G1 X88.172 Y92.83 E.00302
G1 X87.872 Y92.53 E.00396
M204 S10000
M106 S255
;LAYER_CHANGE
;Z:0.22
;HEIGHT:0.12
;WIPE_START
G1 F24000
G1 X88.172 Y92.83 E-.08061
G1 X88.496 Y92.83 E-.0485
G1 X87.872 Y92.206 E-.1107
;WIPE_END
G1 E-.16019 F1800
G1 X87.872 Y92.206 Z.1 F30000
G1 X83.227 Y86.149 Z.5 F11819.71
G1 X82.089 Y84.665 Z.5 F30000
G92 E0
M104 S220 ; set temperature
M141 S0 ; set chamber temperature
G1 Z.22 F600
G1 E.4 F1800
M204 S5000
;TYPE:Perimeter
;WIDTH:0.22
G1 F5085
G1 X82.089 Y84.519 E.00139
G1 X92.086 Y84.519 E.09494
G1 X92.086 Y94.516 E.09494
G1 X83.126 Y94.516 E.0851
G1 X82.089 Y93.479 E.01393
G1 X82.089 Y84.695 E.08342
M204 S10000
G1 X82.283 Y84.802 F30000
M204 S5000
G1 F5085
G1 X82.283 Y84.713 E.00085
G1 X91.892 Y84.713 E.09126
G1 X91.892 Y94.322 E.09126
G1 X83.206 Y94.322 E.08249
G1 X82.283 Y93.399 E.0124
G1 X82.283 Y84.832 E.08136
M204 S10000
G1 X82.283 Y84.832 F30000
G1 X82.477 Y84.94
M204 S3000
;TYPE:External perimeter
G1 F4200
G1 X82.477 Y84.907 E.00031
G1 X91.697 Y84.907 E.08756
G1 X91.697 Y94.127 E.08756
G1 X83.287 Y94.127 E.07987
G1 X82.477 Y93.318 E.01087
G1 X82.477 Y84.97 E.07928
M204 S10000
;WIPE_START
G1 F24000
G1 X82.477 Y84.94 E-.0057
G1 X82.477 Y84.907 E-.00618
G1 X84.414 Y84.907 E-.36812
;WIPE_END
G1 E-.02 F1800
G1 X92.025 Y84.336 Z.62 F11819.708
G1 X92.289 Y84.316 F30000
G1 Z.22 F600
G1 E.4 F1800
M204 S5000
;TYPE:Perimeter
G1 F5085
G1 X92.289 Y94.719 E.0988
G1 X83.042 Y94.719 E.08782
G1 X81.886 Y93.563 E.01553
G1 X81.886 Y84.316 E.08782
G1 X92.259 Y84.316 E.09851
M204 S10000
G1 X92.483 Y84.122 F30000
M204 S5000
G1 F5085
G1 X92.483 Y94.913 E.10248
G1 X82.961 Y94.913 E.09043
G1 X81.692 Y93.644 E.01704
G1 X81.692 Y84.122 E.09043
G1 X92.453 Y84.122 E.1022
M204 S10000
G1 X92.453 Y84.122 F30000
G1 X92.677 Y83.927
M204 S3000
;TYPE:External perimeter
G1 F4200
G1 X92.677 Y95.107 E.10618
G1 X82.881 Y95.107 E.09303
G1 X81.497 Y93.724 E.01858
G1 X81.497 Y83.927 E.09304
G1 X92.647 Y83.927 E.10589
M204 S10000
;WIPE_START
G1 F24000
G1 X92.677 Y83.927 E-.0057
G1 X92.677 Y85.897 E-.3743
;WIPE_END
G1 E-.02 F1800
G1 X89.795 Y86.81 Z.378 F11819.705
G1 Z.22 F600
G1 E.4 F1800
M204 S5000
;TYPE:Perimeter
G1 F5085
G1 X89.795 Y87.71 E.00855
G1 X90.695 Y87.71 E.00855
G1 X90.695 Y88.925 E.01154
G1 X89.795 Y88.925 E.00855
G1 X89.795 Y90.91 E.01885
G1 X90.695 Y90.91 E.00855
G1 X90.695 Y93.125 E.02104
G1 X87.68 Y93.125 E.02863
G1 X87.68 Y92.225 E.00855
G1 X85.695 Y92.225 E.01885
G1 X85.695 Y93.125 E.00855
G1 X83.843 Y93.125 E.01759
G1 X83.48 Y92.762 E.00488
G1 X83.48 Y90.91 E.01759
G1 X84.38 Y90.91 E.00855
G1 X84.38 Y88.925 E.01885
G1 X83.48 Y88.925 E.00855
G1 X83.48 Y85.91 E.02863
G1 X88.095 Y85.91 E.04383
G1 X88.095 Y86.81 E.00855
G1 X89.765 Y86.81 E.01586
M204 S10000
G1 X89.765 Y86.81 F30000
G1 X89.74 Y86.616
M204 S5000
G1 F5085
G1 X89.989 Y86.616 E.00236
G1 X89.989 Y87.516 E.00855
G1 X90.889 Y87.516 E.00855
G1 X90.889 Y89.119 E.01522
G1 X89.989 Y89.119 E.00855
G1 X89.989 Y90.716 E.01517
G1 X90.889 Y90.716 E.00855
G1 X90.889 Y93.319 E.02472
G1 X87.486 Y93.319 E.03232
G1 X87.486 Y92.419 E.00855
G1 X85.889 Y92.419 E.01517
G1 X85.889 Y93.319 E.00855
G1 X83.763 Y93.319 E.02019
G1 X83.286 Y92.842 E.00641
G1 X83.286 Y90.716 E.02019
G1 X84.186 Y90.716 E.00855
M73 P7 R12
G1 X84.186 Y89.119 E.01517
G1 X83.286 Y89.119 E.00855
G1 X83.286 Y85.716 E.03232
G1 X88.289 Y85.716 E.04751
G1 X88.289 Y86.616 E.00855
G1 X89.71 Y86.616 E.0135
M204 S10000
G1 X89.71 Y86.616 F30000
G1 X89.603 Y86.422
M204 S5000
G1 F5085
G1 X90.183 Y86.422 E.00551
G1 X90.183 Y87.322 E.00855
G1 X91.083 Y87.322 E.00855
G1 X91.083 Y89.313 E.01891
G1 X90.183 Y89.313 E.00855
G1 X90.183 Y90.522 E.01148
G1 X91.083 Y90.522 E.00855
G1 X91.083 Y93.513 E.02841
G1 X87.292 Y93.513 E.036
G1 X87.292 Y92.613 E.00855
G1 X86.083 Y92.613 E.01148
G1 X86.083 Y93.513 E.00855
G1 X83.682 Y93.513 E.0228
G1 X83.092 Y92.923 E.00792
G1 X83.092 Y90.522 E.0228
G1 X83.992 Y90.522 E.00855
G1 X83.992 Y89.313 E.01148
G1 X83.092 Y89.313 E.00855
G1 X83.092 Y85.522 E.036
G1 X88.483 Y85.522 E.0512
G1 X88.483 Y86.422 E.00855
G1 X89.573 Y86.422 E.01035
M204 S10000
;WIPE_START
G1 F24000
G1 X89.603 Y86.422 E-.0057
G1 X90.183 Y86.422 E-.10855
G1 X90.183 Y87.322 E-.11959
G1 X90.673 Y87.322 E-.14616
;WIPE_END
G1 E-.02 F1800
G1 X90.686 Y85.919 Z.294 F11819.653
G1 Z.22 F600
G1 E.4 F1800
M204 S5000
G1 F5085
G1 X90.686 Y85.716 E.00193
G1 X90.889 Y85.716 E.00193
G1 X90.889 Y85.919 E.00193
G1 X90.716 Y85.919 E.00164
M204 S10000
G1 X90.492 Y86.113 F30000
M204 S5000
G1 F5085
G1 X90.492 Y85.522 E.00561
G1 X91.083 Y85.522 E.00561
G1 X91.083 Y86.113 E.00561
G1 X90.522 Y86.113 E.00533
M204 S10000
;WIPE_START
G1 F24000
G1 X90.492 Y86.113 E-.0057
G1 X90.492 Y85.522 E-.11061
G1 X91.083 Y85.522 E-.07792
G1 X91.083 Y86.113 E-.0549
G1 X90.886 Y86.113 E-.13088
;WIPE_END
G1 E-.01999 F1800
G1 X89.465 Y86.227 Z.295 F11819.672
G1 Z.22 F600
G1 E.4 F1800
M204 S3000
;TYPE:External perimeter
G1 F4200
G1 X90.297 Y86.227 E.0079
G1 X90.297 Y85.327 E.00855
G1 X91.277 Y85.327 E.00931
G1 X91.277 Y86.307 E.00931
G1 X90.377 Y86.307 E.00855
G1 X90.377 Y87.127 E.00779
G1 X91.277 Y87.127 E.00855
G1 X91.277 Y89.507 E.0226
G1 X90.377 Y89.507 E.00855
G1 X90.377 Y90.327 E.00779
G1 X91.277 Y90.327 E.00855
G1 X91.277 Y93.707 E.0321
G1 X87.097 Y93.707 E.0397
G1 X87.097 Y92.807 E.00855
G1 X86.277 Y92.807 E.00779
G1 X86.277 Y93.707 E.00855
G1 X83.602 Y93.707 E.02541
G1 X82.897 Y93.003 E.00946
G1 X82.897 Y90.327 E.02541
G1 X83.797 Y90.327 E.00855
G1 X83.797 Y89.507 E.00779
G1 X82.897 Y89.507 E.00855
G1 X82.897 Y85.327 E.0397
G1 X88.677 Y85.327 E.05489
G1 X88.677 Y86.227 E.00855
G1 X89.435 Y86.227 E.0072
M204 S10000
;WIPE_START
G1 F24000
G1 X89.465 Y86.227 E-.0057
G1 X90.297 Y86.227 E-.15571
G1 X90.297 Y85.327 E-.09837
G1 X90.535 Y85.327 E-.12023
;WIPE_END
G1 E-.01999 F1800
G1 X84.531 Y89.34 Z.598 F11819.695
G1 Z.22 F600
G1 E.4 F1800
;TYPE:Solid infill
;WIDTH:0.219999
G1 F5085
G1 X84.522 Y88.832 E.00483
G1 X84.434 Y88.774 E.001
G1 X83.631 Y88.774 E.00763
G1 X83.631 Y86.061 E.02577
G1 X87.944 Y86.061 E.04096
G1 X87.961 Y86.919 E.00815
G1 X88.041 Y86.961 E.00086
G1 X89.644 Y86.961 E.01522
G1 X89.651 Y87.801 E.00798
G1 X89.741 Y87.861 E.00103
