; generated by QIDISlicer 1.2.1 on 2025-10-25 at 08:55:44 UTC


;
;
; 

; external perimeters extrusion width = 0.22mm
; perimeters extrusion width = 0.22mm
; infill extrusion width = 0.22mm
; solid infill extrusion width = 0.22mm
; top infill extrusion width = 0.22mm
; first layer extrusion width = 0.25mm

;TYPE:Custom
EXCLUDE_OBJECT_DEFINE NAME=stencil_CompomentTester_stl CENTER=87.500,90.000 POLYGON=[[147.500,127.500],[27.500,127.500],[27.500,52.500],[147.500,52.500]]
M73 P0 R62
PRINT_START
G28
M141 S0
G0 Z50 F600
M190 S60
G28 Z
G29; mesh bed leveling, comment this code to close it
G0 X0 Y0 Z50 F6000
M73 P0 R61
M109 S210
M106 P3 S255
M83
G4 P3000
T0



G0 X22.5 Y47.5 Z5 F6000
G0 Z0.1 F600
G1 E3 F1800
G1 X107.5 E0.85 F3000
G1 Y49.5 E0.02
G1 X22.5 E0.85
G1 Y132.5 E0.83
G1 X24.5 E0.02
G1 Y50.5 E0.82
G1 X34.5 E-0.1
G1 E0.1 F3000
G21 ; set units to millimeters
G90 ; use absolute coordinates
M83 ; use relative distances for extrusion
; Filament gcode
M900 K0.031 T0.03
M107
M106 P2 S0
M106 P3 S255
;LAYER_CHANGE
;Z:0.1
;HEIGHT:0.1
G1 E-.4 F1800
G1 X22.5 Y47.5 Z0 F30000
G1 X29.61 Y50.274 Z.4 F11819.708
G1 X93.964 Y75.384 Z.4 F30000
EXCLUDE_OBJECT_START NAME='stencil_CompomentTester_stl'
G1 X93.964 Y75.384
G1 Z.1 F600
G1 E.4 F1800
M204 S500
;TYPE:Perimeter
;WIDTH:0.25
G1 F2400
G1 X93.901 Y75.321 E.00083
G1 X93.357 Y75.303 E.00507
G1 X93.164 Y75.383 E.00195
G1 X93.102 Y75.321 E.00082
G1 X92.558 Y75.303 E.00507
G1 X92.473 Y75.338 E.00086
G1 X92.489 Y74.867 E.00439
G1 X92.45 Y74.671 E.00186
G1 X92.411 Y74.631 E.00052
G1 X92.474 Y74.536 E.00106
G1 X92.489 Y74.068 E.00436
G1 X92.45 Y73.87 E.00188
G1 X92.414 Y73.834 E.00047
G1 X92.473 Y73.775 E.00078
G1 X92.489 Y73.268 E.00472
G1 X92.45 Y73.07 E.00188
G1 X92.414 Y73.034 E.00047
G1 X92.473 Y72.975 E.00078
G1 X92.489 Y72.468 E.00472
G1 X92.45 Y72.27 E.00188
G1 X92.414 Y72.234 E.00047
G1 X92.473 Y72.175 E.00078
G1 X92.489 Y71.668 E.00472
G1 X92.45 Y71.47 E.00188
G1 X92.414 Y71.434 E.00047
G1 X92.473 Y71.375 E.00078
G1 X92.489 Y70.868 E.00472
G1 X92.45 Y70.67 E.00188
G1 X92.414 Y70.634 E.00047
G1 X92.473 Y70.575 E.00078
G1 X92.489 Y70.068 E.00472
G1 X92.45 Y69.87 E.00188
G1 X92.414 Y69.834 E.00047
G1 X92.473 Y69.775 E.00078
G1 X92.489 Y69.268 E.00472
G1 X92.461 Y69.125 E.00136
G1 X92.558 Y69.165 E.00098
G1 X93.063 Y69.149 E.0047
G1 X93.157 Y69.086 E.00105
G1 X93.196 Y69.125 E.00051
G1 X93.394 Y69.164 E.00188
G1 X93.901 Y69.148 E.00472
G1 X93.96 Y69.089 E.00078
G1 X93.996 Y69.125 E.00047
G1 X94.193 Y69.164 E.00187
G1 X94.701 Y69.148 E.00473
G1 X94.76 Y69.089 E.00078
G1 X94.796 Y69.125 E.00047
G1 X94.993 Y69.164 E.00187
G1 X95.501 Y69.148 E.00473
G1 X95.56 Y69.089 E.00078
G1 X95.596 Y69.125 E.00047
G1 X95.793 Y69.164 E.00187
G1 X96.301 Y69.148 E.00473
G1 X96.36 Y69.089 E.00078
G1 X96.396 Y69.125 E.00047
G1 X96.593 Y69.164 E.00187
G1 X97.101 Y69.148 E.00473
G1 X97.16 Y69.089 E.00078
G1 X97.196 Y69.125 E.00047
G1 X97.393 Y69.164 E.00187
G1 X97.901 Y69.148 E.00473
G1 X97.959 Y69.089 E.00077
G1 X97.996 Y69.125 E.00048
G1 X98.193 Y69.164 E.00187
G1 X98.663 Y69.149 E.00438
G1 X98.629 Y69.232 E.00084
G1 X98.646 Y69.775 E.00506
G1 X98.709 Y69.838 E.00083
G1 X98.629 Y70.032 E.00195
G1 X98.646 Y70.575 E.00506
G1 X98.709 Y70.638 E.00083
G1 X98.629 Y70.832 E.00195
G1 X98.646 Y71.375 E.00506
G1 X98.709 Y71.438 E.00083
G1 X98.629 Y71.631 E.00195
G1 X98.646 Y72.175 E.00507
G1 X98.709 Y72.238 E.00083
G1 X98.629 Y72.431 E.00195
G1 X98.646 Y72.975 E.00507
G1 X98.709 Y73.038 E.00083
G1 X98.629 Y73.231 E.00195
G1 X98.646 Y73.775 E.00507
G1 X98.709 Y73.838 E.00083
G1 X98.629 Y74.031 E.00195
G1 X98.646 Y74.575 E.00507
G1 X98.709 Y74.638 E.00083
G1 X98.629 Y74.831 E.00195
G1 X98.644 Y75.319 E.00455
G1 X98.157 Y75.303 E.00454
G1 X97.964 Y75.384 E.00195
G1 X97.901 Y75.321 E.00083
G1 X97.357 Y75.303 E.00507
G1 X97.164 Y75.384 E.00195
G1 X97.101 Y75.321 E.00083
G1 X96.557 Y75.303 E.00507
G1 X96.364 Y75.384 E.00195
G1 X96.301 Y75.321 E.00083
G1 X95.757 Y75.303 E.00507
G1 X95.564 Y75.384 E.00195
G1 X95.501 Y75.321 E.00083
G1 X94.957 Y75.303 E.00507
G1 X94.764 Y75.384 E.00195
G1 X94.701 Y75.321 E.00083
G1 X94.157 Y75.303 E.00507
G1 X93.992 Y75.372 E.00167
M204 S10000
;WIPE_START
G1 F24000
G1 X93.964 Y75.384 E-.00579
G1 X93.901 Y75.321 E-.01667
G1 X93.357 Y75.303 E-.0973
G1 X93.164 Y75.383 E-.02718
G1 X93.102 Y75.321 E-.01022
G1 X92.558 Y75.303 E-.06064
G1 X92.473 Y75.338 E-.00745
G1 X92.487 Y74.935 E-.15474
;WIPE_END
G1 E-.02001 F1800
G1 X95.05 Y79.524 Z.375 F11819.735
G1 Z.1 F600
G1 E.4 F1800
M204 S500
G1 F2400
G1 X94.925 Y79.607 E.0014
G1 X94.799 Y79.524 E.0014
G1 X94.925 Y79.44 E.00141
G1 X95.025 Y79.507 E.00112
M204 S10000
;WIPE_START
G1 F24000
G1 X95.05 Y79.524 E-.00574
G1 X94.925 Y79.607 E-.02808
G1 X94.799 Y79.524 E-.02612
G1 X94.925 Y79.44 E-.02423
G1 X95.025 Y79.507 E-.0178
;WIPE_END
G1 E-.29803 F1800
G1 X97.443 Y72.268 Z.5 F11819.707
G1 X98.405 Y69.386 F30000
G1 Z.1 F600
G1 E.4 F1800
M204 S500
G1 F2400
G1 X98.421 Y69.873 E.00454
G1 X98.44 Y69.892 E.00025
G1 X98.399 Y69.989 E.00098
G1 X98.421 Y70.673 E.00637
G1 X98.44 Y70.692 E.00025
G1 X98.399 Y70.789 E.00098
G1 X98.421 Y71.473 E.00637
G1 X98.44 Y71.492 E.00025
G1 X98.399 Y71.589 E.00098
G1 X98.421 Y72.273 E.00637
G1 X98.44 Y72.292 E.00025
G1 X98.399 Y72.389 E.00098
G1 X98.421 Y73.073 E.00637
G1 X98.44 Y73.092 E.00025
G1 X98.399 Y73.189 E.00098
G1 X98.421 Y73.873 E.00637
G1 X98.44 Y73.892 E.00025
G1 X98.399 Y73.989 E.00098
G1 X98.421 Y74.673 E.00637
G1 X98.44 Y74.692 E.00025
G1 X98.399 Y74.789 E.00098
G1 X98.408 Y75.083 E.00274
G1 X98.115 Y75.073 E.00273
G1 X98.017 Y75.114 E.00099
G1 X97.998 Y75.095 E.00025
G1 X97.315 Y75.073 E.00636
G1 X97.217 Y75.114 E.00099
G1 X97.198 Y75.095 E.00025
G1 X96.515 Y75.073 E.00636
G1 X96.417 Y75.114 E.00099
G1 X96.398 Y75.095 E.00025
G1 X95.715 Y75.073 E.00636
G1 X95.617 Y75.114 E.00099
G1 X95.598 Y75.095 E.00025
G1 X94.915 Y75.073 E.00636
G1 X94.817 Y75.114 E.00099
G1 X94.798 Y75.095 E.00025
G1 X94.115 Y75.073 E.00636
G1 X94.018 Y75.114 E.00098
G1 X93.999 Y75.095 E.00025
G1 X93.315 Y75.073 E.00637
G1 X93.218 Y75.114 E.00098
G1 X93.2 Y75.095 E.00024
G1 X92.711 Y75.08 E.00456
G1 X92.718 Y74.849 E.00215
G1 X92.678 Y74.643 E.00195
G1 X92.701 Y74.609 E.00038
G1 X92.718 Y74.049 E.00522
G1 X92.686 Y73.885 E.00156
G1 X92.718 Y73.249 E.00593
G1 X92.686 Y73.085 E.00156
G1 X92.718 Y72.449 E.00593
G1 X92.686 Y72.285 E.00156
G1 X92.718 Y71.649 E.00593
G1 X92.686 Y71.485 E.00156
G1 X92.718 Y70.849 E.00593
G1 X92.686 Y70.685 E.00156
G1 X92.718 Y70.049 E.00593
G1 X92.686 Y69.885 E.00156
G1 X92.714 Y69.388 E.00464
G1 X93.136 Y69.375 E.00393
G1 X93.17 Y69.353 E.00038
G1 X93.375 Y69.393 E.00194
G1 X94.011 Y69.361 E.00593
G1 X94.175 Y69.393 E.00156
G1 X94.811 Y69.361 E.00593
G1 X94.975 Y69.393 E.00156
G1 X95.611 Y69.361 E.00593
G1 X95.775 Y69.393 E.00156
G1 X96.411 Y69.361 E.00593
G1 X96.575 Y69.393 E.00156
G1 X97.211 Y69.361 E.00593
G1 X97.375 Y69.393 E.00156
G1 X98.011 Y69.361 E.00593
G1 X98.175 Y69.393 E.00156
G1 X98.375 Y69.386 E.00186
M204 S10000
;WIPE_START
G1 F24000
G1 X98.405 Y69.386 E-.0057
G1 X98.421 Y69.873 E-.09119
G1 X98.44 Y69.892 E-.0038
G1 X98.399 Y69.989 E-.01471
G1 X98.421 Y70.673 E-.09054
G1 X98.44 Y70.692 E-.00234
G1 X98.399 Y70.789 E-.00904
G1 X98.416 Y71.323 E-.16268
;WIPE_END
G1 E-.02 F1800
G1 X94.457 Y66.759 Z.417 F11819.74
G1 Z.1 F600
G1 E.4 F1800
M204 S500
G1 F2400
G1 X94.687 Y66.759 E.00214
G1 X94.953 Y66.707 E.00252
G1 X95.227 Y66.524 E.00307
G1 X95.331 Y66.369 E.00174
G1 X95.435 Y66.524 E.00174
G1 X95.709 Y66.707 E.00307
G1 X95.959 Y66.756 E.00237
G1 X95.715 Y66.748 E.00227
G1 X95.617 Y66.789 E.00099
G1 X95.598 Y66.77 E.00025
G1 X94.915 Y66.748 E.00636
G1 X94.817 Y66.789 E.00099
G1 X94.799 Y66.77 E.00024
G1 X94.487 Y66.76 E.00291
M204 S10000
;WIPE_START
G1 F24000
G1 X94.457 Y66.759 E-.0057
G1 X94.687 Y66.759 E-.04304
G1 X94.953 Y66.707 E-.04489
G1 X95.227 Y66.524 E-.04718
G1 X95.331 Y66.369 E-.02232
G1 X95.435 Y66.524 E-.02024
G1 X95.709 Y66.707 E-.03239
G1 X95.959 Y66.756 E-.02092
G1 X95.777 Y66.75 E-.14331
;WIPE_END
G1 E-.02001 F1800
G1 X96.057 Y66.759 Z.115 F11820.374
G1 Z.1 F600
G1 E.4 F1800
M204 S500
G1 F2400
G1 X96.489 Y66.759 E.00402
G1 X96.417 Y66.789 E.00073
G1 X96.398 Y66.77 E.00025
G1 X96.087 Y66.76 E.0029
M204 S10000
;WIPE_START
G1 F24000
G1 X96.057 Y66.759 E-.0057
G1 X96.489 Y66.759 E-.08085
G1 X96.417 Y66.789 E-.01144
G1 X96.398 Y66.77 E-.00379
G1 X96.087 Y66.76 E-.04328
;WIPE_END
G1 E-.25494 F1800
G1 X99.064 Y60.25 Z.475 F11819.713
G1 Z.1 F600
G1 E.4 F1800
M204 S500
G1 F2400
G1 X98.984 Y60.303 E.00089
G1 X98.887 Y60.448 E.00162
G1 X98.79 Y60.303 E.00162
G1 X98.71 Y60.25 E.00089
G1 X98.79 Y60.197 E.00089
G1 X98.887 Y60.052 E.00162
G1 X98.984 Y60.197 E.00162
G1 X99.039 Y60.233 E.00061
M204 S10000
;WIPE_START
G1 F24000
G1 X99.064 Y60.25 E-.00574
G1 X98.984 Y60.303 E-.01796
G1 X98.887 Y60.448 E-.03108
G1 X98.79 Y60.303 E-.02837
G1 X98.71 Y60.25 E-.01424
G1 X98.79 Y60.197 E-.01356
G1 X98.887 Y60.052 E-.02347
G1 X98.984 Y60.197 E-.02142
G1 X99.039 Y60.233 E-.00737
;WIPE_END
G1 E-.23679 F1800
G1 X91.408 Y60.404 Z.5 F11819.709
G1 X89.818 Y60.44 F30000
G1 Z.1 F600
G1 E.4 F1800
M204 S500
G1 F2400
G1 X89.737 Y60.494 E.00091
G1 X89.642 Y60.638 E.00161
G1 X89.545 Y60.494 E.00162
G1 X89.465 Y60.44 E.0009
G1 X89.545 Y60.386 E.0009
G1 X89.642 Y60.242 E.00162
G1 X89.737 Y60.385 E.0016
G1 X89.793 Y60.423 E.00063
M204 S10000
;WIPE_START
G1 F24000
G1 X89.818 Y60.44 E-.00574
G1 X89.737 Y60.494 E-.01822
G1 X89.642 Y60.638 E-.03071
G1 X89.545 Y60.494 E-.02824
G1 X89.465 Y60.44 E-.01434
G1 X89.545 Y60.386 E-.01365
G1 X89.642 Y60.242 E-.02336
G1 X89.737 Y60.385 E-.02109
G1 X89.793 Y60.423 E-.0076
;WIPE_END
G1 E-.23705 F1800
G1 X84.693 Y60.159 Z.368 F11819.725
G1 Z.1 F600
G1 E.4 F1800
M204 S500
G1 F2400
G1 X84.79 Y60.304 E.00162
G1 X84.87 Y60.357 E.00089
G1 X84.79 Y60.411 E.0009
G1 X84.693 Y60.555 E.00162
G1 X84.596 Y60.411 E.00162
G1 X84.516 Y60.357 E.0009
G1 X84.596 Y60.304 E.00089
G1 X84.676 Y60.184 E.00134
M204 S10000
;WIPE_START
G1 F24000
G1 X84.693 Y60.159 E-.00574
G1 X84.79 Y60.304 E-.03265
G1 X84.87 Y60.357 E-.01639
G1 X84.79 Y60.411 E-.0157
G1 X84.693 Y60.555 E-.02687
G1 X84.596 Y60.411 E-.02454
G1 X84.516 Y60.357 E-.01246
G1 X84.596 Y60.304 E-.01179
G1 X84.676 Y60.184 E-.01686
;WIPE_END
G1 E-.237 F1800
G1 X90.404 Y65.228 Z.5 F11819.709
G1 X95.378 Y69.609 F30000
G1 Z.1 F600
G1 E.4 F1800
M204 S500
G1 F2400
G1 X95.645 Y69.6 E.00249
G1 X95.756 Y69.622 E.00105
G1 X96.445 Y69.6 E.00642
G1 X96.556 Y69.622 E.00105
G1 X97.245 Y69.6 E.00642
G1 X97.356 Y69.622 E.00105
G1 X98.045 Y69.6 E.00642
G1 X98.184 Y69.621 E.00131
G1 X98.192 Y69.891 E.00252
G1 X98.169 Y69.947 E.00056
G1 X98.192 Y70.691 E.00693
G1 X98.169 Y70.747 E.00056
G1 X98.192 Y71.491 E.00693
G1 X98.169 Y71.547 E.00056
G1 X98.192 Y72.291 E.00693
G1 X98.169 Y72.347 E.00056
G1 X98.192 Y73.091 E.00693
G1 X98.169 Y73.147 E.00056
G1 X98.192 Y73.891 E.00693
G1 X98.169 Y73.947 E.00056
G1 X98.192 Y74.691 E.00693
G1 X98.169 Y74.747 E.00056
G1 X98.172 Y74.847 E.00093
G1 X98.073 Y74.843 E.00092
G1 X98.016 Y74.867 E.00058
G1 X97.273 Y74.843 E.00692
G1 X97.216 Y74.867 E.00058
G1 X96.473 Y74.843 E.00692
G1 X96.417 Y74.867 E.00057
G1 X95.673 Y74.843 E.00693
G1 X95.617 Y74.867 E.00057
G1 X94.873 Y74.843 E.00693
G1 X94.817 Y74.867 E.00057
G1 X94.073 Y74.843 E.00693
G1 X94.017 Y74.867 E.00057
G1 X93.273 Y74.843 E.00693
G1 X93.217 Y74.867 E.00057
G1 X92.947 Y74.858 E.00252
G1 X92.92 Y74.691 E.00158
G1 X92.948 Y74.031 E.00615
G1 X92.926 Y73.92 E.00105
G1 X92.948 Y73.231 E.00642
G1 X92.926 Y73.12 E.00105
G1 X92.948 Y72.431 E.00642
G1 X92.926 Y72.32 E.00105
G1 X92.948 Y71.631 E.00642
G1 X92.926 Y71.52 E.00105
G1 X92.948 Y70.831 E.00642
G1 X92.926 Y70.72 E.00105
G1 X92.948 Y70.031 E.00642
G1 X92.926 Y69.92 E.00105
G1 X92.936 Y69.61 E.00289
G1 X93.219 Y69.595 E.00264
G1 X93.356 Y69.622 E.0013
G1 X94.045 Y69.6 E.00642
G1 X94.156 Y69.622 E.00105
G1 X94.845 Y69.6 E.00642
G1 X94.956 Y69.622 E.00105
G1 X95.348 Y69.61 E.00365
M204 S10000
;WIPE_START
G1 F24000
G1 X95.378 Y69.609 E-.0057
G1 X95.645 Y69.6 E-.05
G1 X95.756 Y69.622 E-.01835
G1 X96.445 Y69.6 E-.10545
G1 X96.556 Y69.622 E-.01134
G1 X97.245 Y69.6 E-.0652
G1 X97.341 Y69.619 E-.12396
;WIPE_END
G1 E-.02 F1800
G1 X91.698 Y64.48 Z.5 F11819.709
G1 X87.14 Y60.33 F30000
G1 Z.1 F600
G1 E.4 F1800
M204 S500
G1 F2400
G1 X87.213 Y60.44 E.00123
G1 X87.195 Y60.467 E.0003
G1 X87.122 Y60.357 E.00123
G1 X87.123 Y60.355 E.00002
M204 S10000
;WIPE_START
G1 F24000
G1 X87.14 Y60.33 E-.00574
G1 X87.213 Y60.44 E-.0247
G1 X87.195 Y60.467 E-.00567
G1 X87.122 Y60.357 E-.0227
G1 X87.123 Y60.355 E-.00036
;WIPE_END
G1 E-.34083 F1800
G1 X91.823 Y66.369 Z.5 F11819.708
G1 X99.438 Y76.112 F30000
G1 Z.1 F600
G1 E.4 F1800
M204 S500
G1 F2400
G1 X99.446 Y77.072 E.00894
G1 X99.372 Y77.447 E.00356
G1 X98.896 Y77.924 E.00627
G1 X98.156 Y77.947 E.00689
G1 X98.045 Y77.925 E.00105
G1 X97.443 Y77.944 E.00561
G1 X97.501 Y78.246 E.00286
G1 X97.501 Y78.902 E.00611
G1 X97.437 Y79.235 E.00316
G1 X97.243 Y79.524 E.00324
G1 X97.437 Y79.813 E.00324
G1 X97.501 Y80.146 E.00316
G1 X97.501 Y80.802 E.00611
G1 X97.437 Y81.135 E.00316
G1 X97.202 Y81.485 E.00393
G1 X96.854 Y81.718 E.0039
G1 X96.521 Y81.785 E.00316
G1 X95.411 Y81.785 E.01034
G1 X95.078 Y81.718 E.00316
G1 X94.925 Y81.615 E.00172
G1 X94.771 Y81.718 E.00173
G1 X94.438 Y81.785 E.00316
G1 X93.328 Y81.785 E.01034
G1 X92.996 Y81.718 E.00315
G1 X92.647 Y81.485 E.00391
G1 X92.414 Y81.137 E.0039
G1 X92.348 Y80.804 E.00316
G1 X92.348 Y80.144 E.00615
G1 X92.414 Y79.811 E.00316
G1 X92.606 Y79.524 E.00322
G1 X92.414 Y79.236 E.00322
G1 X92.348 Y78.904 E.00315
G1 X92.348 Y78.244 E.00615
G1 X92.412 Y77.919 E.00308
G1 X92.171 Y77.872 E.00229
G1 X91.688 Y77.388 E.00637
G1 X91.676 Y76.117 E.01184
G1 X90.405 Y76.106 E.01184
G1 X89.87 Y75.57 E.00705
G1 X89.844 Y74.747 E.00767
G1 X89.867 Y74.691 E.00056
G1 X89.844 Y73.947 E.00693
G1 X89.867 Y73.891 E.00056
G1 X89.844 Y73.147 E.00693
G1 X89.867 Y73.091 E.00056
G1 X89.844 Y72.347 E.00693
G1 X89.867 Y72.291 E.00056
G1 X89.844 Y71.547 E.00693
G1 X89.867 Y71.491 E.00056
G1 X89.844 Y70.747 E.00693
G1 X89.867 Y70.691 E.00056
G1 X89.844 Y69.148 E.01437
G1 X90.08 Y68.577 E.00575
G1 X90.641 Y68.347 E.00565
G1 X91.681 Y68.356 E.00968
G1 X91.672 Y67.313 E.00971
G1 X91.905 Y66.753 E.00565
G1 X92.474 Y66.518 E.00573
G1 X93.217 Y66.542 E.00692
G1 X93.26 Y66.524 E.00043
G1 X93.135 Y66.338 E.00209
G1 X93.071 Y66.006 E.00315
G1 X93.071 Y64.899 E.01031
G1 X93.135 Y64.566 E.00316
G1 X93.37 Y64.216 E.00393
G1 X93.72 Y63.982 E.00392
G1 X94.053 Y63.917 E.00316
G1 X94.709 Y63.917 E.00611
G1 X95.042 Y63.982 E.00316
G1 X95.331 Y64.175 E.00324
G1 X95.62 Y63.982 E.00324
G1 X95.953 Y63.917 E.00316
G1 X96.609 Y63.917 E.00611
G1 X96.942 Y63.982 E.00316
G1 X97.292 Y64.216 E.00392
G1 X97.525 Y64.565 E.00391
G1 X97.592 Y64.897 E.00315
G1 X97.592 Y66.008 E.01035
G1 X97.525 Y66.34 E.00315
G1 X97.403 Y66.522 E.00204
G1 X98.016 Y66.542 E.00571
G1 X98.073 Y66.518 E.00058
G1 X98.896 Y66.544 E.00767
G1 X99.432 Y67.08 E.00706
G1 X99.442 Y68.351 E.01184
G1 X100.713 Y68.362 E.01184
G1 X101.197 Y68.846 E.00637
G1 X101.273 Y69.231 E.00365
G1 X101.251 Y69.92 E.00642
G1 X101.273 Y70.031 E.00105
G1 X101.251 Y70.72 E.00642
G1 X101.273 Y70.831 E.00105
G1 X101.269 Y70.944 E.00105
G1 X101.428 Y70.838 E.00178
G1 X101.761 Y70.773 E.00316
G1 X102.417 Y70.773 E.00611
G1 X102.75 Y70.838 E.00316
G1 X103.039 Y71.031 E.00324
G1 X103.328 Y70.838 E.00324
G1 X103.661 Y70.773 E.00316
G1 X104.317 Y70.773 E.00611
G1 X104.65 Y70.838 E.00316
G1 X105 Y71.072 E.00392
G1 X105.235 Y71.422 E.00393
G1 X105.299 Y71.755 E.00316
G1 X105.299 Y72.861 E.0103
G1 X105.235 Y73.194 E.00316
G1 X105 Y73.544 E.00393
G1 X104.65 Y73.779 E.00393
G1 X104.317 Y73.844 E.00316
G1 X103.661 Y73.844 E.00611
G1 X103.328 Y73.779 E.00316
G1 X103.039 Y73.585 E.00324
G1 X102.75 Y73.779 E.00324
G1 X102.417 Y73.844 E.00316
G1 X101.761 Y73.844 E.00611
G1 X101.428 Y73.779 E.00316
G1 X101.259 Y73.666 E.00189
G1 X101.251 Y73.92 E.00237
G1 X101.273 Y74.031 E.00105
G1 X101.245 Y74.691 E.00615
G1 X101.273 Y74.83 E.00132
G1 X101.252 Y75.481 E.00606
G1 X100.957 Y75.923 E.00495
